X:772
T:As a thoiseach. "Keep it up"
R:Reel
A:Cape Breton
S:Sandy MacIntyre
M:C
L:1/8
K:Em
^c|dEBE dEB^c | dEBE FDD^c| dEBE GBeB | ^cAdA FDD :|
f|gebe geef | gebe fddf | gebe gefd | ^cAdA FDDf |
gebe geef | gebe fddf | ebgb fbeg | f^cdA FDD ||
%%newpage
